Numix-GalliumOS/24/mimetypes/application-info.svg

<?xml version="1.0" encoding="UTF-8" standalone="no"?>
<svg
   xmlns:dc="http://purl.org/dc/elements/1.1/"
   xmlns:cc="http://creativecommons.org/ns#"
   xmlns:rdf="http://www.w3.org/1999/02/22-rdf-syntax-ns#"
   xmlns:svg="http://www.w3.org/2000/svg"
   xmlns="http://www.w3.org/2000/svg"
   xmlns:sodipodi="http://sodipodi.sourceforge.net/DTD/sodipodi-0.dtd"
   xmlns:inkscape="http://www.inkscape.org/namespaces/inkscape"
   width="24"
   height="24"
   viewBox="0 0 24 24"
   id="svg2"
   version="1.1"
   inkscape:version="0.48.5 r10040"
   sodipodi:docname="application-info.svg">
  <metadata
     id="metadata16">
    <rdf:RDF>
      <cc:Work
         rdf:about="">
        <dc:format>image/svg+xml</dc:format>
        <dc:type
           rdf:resource="http://purl.org/dc/dcmitype/StillImage" />
      </cc:Work>
    </rdf:RDF>
  </metadata>
  <defs
     id="defs14" />
  <sodipodi:namedview
     pagecolor="#ffffff"
     bordercolor="#666666"
     borderopacity="1"
     objecttolerance="10"
     gridtolerance="10"
     guidetolerance="10"
     inkscape:pageopacity="0"
     inkscape:pageshadow="2"
     inkscape:window-width="1280"
     inkscape:window-height="970"
     id="namedview12"
     showgrid="true"
     inkscape:zoom="20.85965"
     inkscape:cx="24.372008"
     inkscape:cy="8.2318494"
     inkscape:window-x="0"
     inkscape:window-y="0"
     inkscape:window-maximized="1"
     inkscape:current-layer="svg2">
    <inkscape:grid
       type="xygrid"
       id="grid2993"
       empspacing="5"
       visible="true"
       enabled="true"
       snapvisiblegridlinesonly="true" />
  </sodipodi:namedview>
  <path
     style="fill:#4a80d6;fill-opacity:1"
     d="M 5,1 C 4.527343,1 4,1.527344 4,2 l 0,20 c 0,0.445312 0.554687,1 1,1 l 14,0 c 0.445313,0 0.992367,-0.554753 1,-1 L 20,7 14,1 z"
     id="path4"
     inkscape:connector-curvature="0"
     sodipodi:nodetypes="ssssssccs" />
  <path
     style="fill:#000000;fill-opacity:0.19599998"
     d="m 15,7 5,5 0,-5 z"
     id="path6-7"
     inkscape:connector-curvature="0"
     sodipodi:nodetypes="cccc" />
  <path
     style="fill:#ffffff;fill-opacity:0.39200003"
     d="m 14,1 6,6 -5,0 C 14.554688,7 14,6.445312 14,6 z"
     id="path8-2"
     inkscape:connector-curvature="0"
     sodipodi:nodetypes="ccssc" />
  <path
     style="fill:#ffffff"
     d="M 8.2518311,9 C 7.556369,9 7,9.556777 7,10.252748 L 7,17.75458 C 7,18.443223 7.556369,19 8.2518311,19 L 15.74817,19 C 16.443631,19 17,18.443223 17,17.75458 l 0,-7.501832 C 17,9.556777 16.443631,9 15.74817,9 z M 11,10 l 2,0 0,2 -2,0 z m -1,3 3,0 0,4 1,0 0,1 -4,0 0,-1 1,0 0,-3 -1,0 z"
     id="path10"
     inkscape:connector-curvature="0"
     sodipodi:nodetypes="ssssssssscccccccccccccccc" />
</svg>

<svg xmlns="http://www.w3.org/2000/svg" viewBox="0 0 24 24">
 <path d="m 5 1 c -0.473 0 -1 0.527 -1 1 l 0 20 c 0 0.445 0.555 1 1 1 l 14 0 c 0.445 0 0.992 -0.555 1 -1 l 0 -15 -6 -6 z" style="fill:#4a80d6;fill-opacity:1"/>
 <path d="m 15 7 5 5 0 -5 z" style="fill:#000;fill-opacity:0.196"/>
 <path d="m 14 1 6 6 -5 0 c -0.445 0 -1 -0.555 -1 -1 z" style="fill:#fff;fill-opacity:0.392"/>
 <path d="m 8.252 9 c -0.695 0 -1.252 0.557 -1.252 1.253 l 0 7.502 c 0 0.689 0.556 1.245 1.252 1.245 l 7.496 0 c 0.695 0 1.252 -0.557 1.252 -1.245 l 0 -7.502 c 0 -0.696 -0.556 -1.253 -1.252 -1.253 z m 2.748 1 l 2 0 0 2 -2 0 z m -1 3 3 0 0 4 1 0 0 1 -4 0 0 -1 1 0 0 -3 -1 0 z" style="fill:#fff"/>
</svg>
